hero/outline/camera.svg

<svg width="24" height="24" viewBox="0 0 24 24" fill="none" xmlns="http://www.w3.org/2000/svg">
<path d="M6.82689 6.1749C6.46581 6.75354 5.86127 7.13398 5.186 7.22994C4.80655 7.28386 4.42853 7.34223 4.05199 7.40497C2.99912 7.58042 2.25 8.50663 2.25 9.57402V18C2.25 19.2426 3.25736 20.25 4.5 20.25H19.5C20.7426 20.25 21.75 19.2426 21.75 18V9.57403C21.75 8.50664 21.0009 7.58043 19.948 7.40498C19.5715 7.34223 19.1934 7.28387 18.814 7.22995C18.1387 7.13398 17.5342 6.75354 17.1731 6.17491L16.3519 4.85889C15.9734 4.25237 15.3294 3.85838 14.6155 3.82005C13.7496 3.77355 12.8775 3.75 12 3.75C11.1225 3.75 10.2504 3.77355 9.3845 3.82005C8.6706 3.85838 8.02658 4.25237 7.64809 4.85889L6.82689 6.1749Z" stroke="#0F172A" stroke-width="1.5" stroke-linecap="round" stroke-linejoin="round"/>
<path d="M16.5 12.75C16.5 15.2353 14.4853 17.25 12 17.25C9.51472 17.25 7.5 15.2353 7.5 12.75C7.5 10.2647 9.51472 8.25 12 8.25C14.4853 8.25 16.5 10.2647 16.5 12.75Z" stroke="#0F172A" stroke-width="1.5" stroke-linecap="round" stroke-linejoin="round"/>
<path d="M18.75 10.5H18.7575V10.5075H18.75V10.5Z" stroke="#0F172A" stroke-width="1.5" stroke-linecap="round" stroke-linejoin="round"/>
</svg>

<svg viewBox="0 0 24 24" xmlns="http://www.w3.org/2000/svg"><g stroke-linecap="round" stroke-width="1.5" stroke="#000" fill="none" stroke-linejoin="round"><path d="M6.82 6.175l-.001 0c-.37.57-.97.96-1.65 1.05 -.38.05-.76.11-1.14.17 -1.053.17-1.81 1.1-1.81 2.16v8.426 0c0 1.24 1 2.25 2.25 2.25h15v0c1.24 0 2.25-1.01 2.25-2.25V9.55c0-1.07-.75-2-1.81-2.17l-.001 0c-.38-.07-.76-.13-1.14-.18v0c-.68-.1-1.28-.48-1.64-1.06l-.83-1.32v0c-.38-.61-1.03-1-1.74-1.04l0-.001c-1.75-.1-3.49-.1-5.24 0V3.78c-.72.04-1.37.43-1.74 1.03l-.83 1.31Z"/><path d="M16.5 12.75v0c0 2.48-2.02 4.5-4.5 4.5 -2.49 0-4.5-2.02-4.5-4.5v0c0-2.49 2.01-4.5 4.5-4.5 2.48 0 4.5 2.01 4.5 4.5Zm2.25-2.25h0v0h-.01v-.01Z"/></g></svg>
